X:4
T:Dirty Old Town
C:Ewan McColl
K:D
M:4/4
L:1/8
(3DDD | G2 A2 (B4 | B6) GA | B3 G (D4 | D8) | B2 d2 (e4 | e6) dB | A3 G (B4 | B6) dd |
e2 d2 (B4 | B6) GA | B3 G (D4 | D8) | ED DG BG (A2 | A8) | AG AG ED (E2 | E6) :|
%%textfont Times-Roman 20
%%begintext
I found my love by the gas works croft
Dreamed a dream by the old canal
I kissed my girl by the factory wall
Dirty old town
Dirty old town

Clouds are drifting across the moon
Cats are prowling on their beat
Out springs a girl from the streets at night

I heard a siren from the docks
Saw a train set the night on fire
I smelled the spring on the smoky wind

I'm gonna make me a big sharp axe
Shining steel tempered in the fire
I'll cut you down like an old dead tree

I found my love by the gas works wall
Dreamed a dream by the old canal
I kissed my girl by the factory wall
Dirty old town
Dirty old town
Dirty old town
Dirty old town
%%endtext
%%newpage

